src/cmd/sc_deletecell.svg

<svg viewBox="0 0 16 16" xmlns="http://www.w3.org/2000/svg"><path d="m2 2v12h1 2 5 1 3v-1-11h-1-2-6-2zm1 1h2v3h1v-3h4v3h1v-3h2v3h-2v1h2v3h-2v1h2v2h-2v-2h-1v2h-4v-2h-1v2h-2v-2h2v-1h-2v-3h2v-1h-2z" fill="#232629"/><path d="m5 6v5h.5.5 1.28125 1.4375 1.28125.5.5v-2.28125-2.71875h-.5-4.5zm1 1h1.28125l-1.28125 1.28125zm2.71875 0h1.28125v1.28125l-1.71875 1.71875h-2.28125v-.28125zm1.28125 2.71875v.28125h-.28125z" fill="#c7162b"/></svg>

<?xml version="1.0" encoding="UTF-8" standalone="no"?>
<svg
   xmlns:dc="http://purl.org/dc/elements/1.1/"
   xmlns:cc="http://creativecommons.org/ns#"
   xmlns:rdf="http://www.w3.org/1999/02/22-rdf-syntax-ns#"
   xmlns:svg="http://www.w3.org/2000/svg"
   xmlns="http://www.w3.org/2000/svg"
   xmlns:sodipodi="http://sodipodi.sourceforge.net/DTD/sodipodi-0.dtd"
   xmlns:inkscape="http://www.inkscape.org/namespaces/inkscape"
   viewBox="0 0 16 16"
   version="1.1"
   id="svg6"
   sodipodi:docname="sc_deletecell.svg"
   inkscape:version="0.92.4 (5da689c313, 2019-01-14)">
  <metadata
     id="metadata12">
    <rdf:RDF>
      <cc:Work
         rdf:about="">
        <dc:format>image/svg+xml</dc:format>
        <dc:type
           rdf:resource="http://purl.org/dc/dcmitype/StillImage" />
      </cc:Work>
    </rdf:RDF>
  </metadata>
  <defs
     id="defs10" />
  <sodipodi:namedview
     pagecolor="#ffffff"
     bordercolor="#666666"
     borderopacity="1"
     objecttolerance="10"
     gridtolerance="10"
     guidetolerance="10"
     inkscape:pageopacity="0"
     inkscape:pageshadow="2"
     inkscape:window-width="1920"
     inkscape:window-height="1011"
     id="namedview8"
     showgrid="true"
     inkscape:zoom="41.7193"
     inkscape:cx="4.7667875"
     inkscape:cy="4.9705911"
     inkscape:window-x="0"
     inkscape:window-y="32"
     inkscape:window-maximized="1"
     inkscape:current-layer="svg6">
    <inkscape:grid
       type="xygrid"
       id="grid822" />
  </sodipodi:namedview>
  <path
     d="m 2,4 v 8 c 0,2 1,2 3,2 h 5 1 c 2,0 3,0 3,-2 V 4 C 14,2 13,2 11,2 H 5 C 3,2 2,2 2,4 Z M 3,4 C 3,3 4,3 5,3 V 6 H 6 V 3 h 4 v 3 h 1 V 3 c 1,0 2,0 2,1 v 2 h -2 v 1 h 2 v 3 h -2 v 1 h 2 v 1 c 0,1 -1,1 -2,1 v -2 h -1 v 2 H 6 V 11 H 5 v 2 C 4,13 3,13 3,12 V 11 H 5 V 10 H 3 V 7 H 5 V 6 H 3 Z"
     id="path2"
     inkscape:connector-curvature="0"
     style="fill:#232629"
     sodipodi:nodetypes="ccccccccccccccccccccccccccccccccccccccccccccccc" />
  <path
     d="m5 6v5h.5.5 1.28125 1.4375 1.28125.5.5v-2.28125-2.71875h-.5-4.5zm1 1h1.28125l-1.28125 1.28125zm2.71875 0h1.28125v1.28125l-1.71875 1.71875h-2.28125v-.28125zm1.28125 2.71875v.28125h-.28125z"
     fill="#c7162b"
     id="path4" />
</svg>
